X: 13
T: Lady Ann Montgomery 
M: 4/4
L: 1/8
R: Reel
K: D
E|FADA FADA|FAdA BAdA|FADF EDEF|DB,A,B, D3 E|
FADA FADA|FAdA BABc|dBAF EDEF|DB,A,B, D3 :|
e|f2 fe fede|fedB ABde|f2fe fede|fgaf efde|
f2 fe fede|fedB ABde|f2ed BdAd|(3efg fe d3 :|
